X:42
T:Steyrer Tanz - Clarinetto - in C, nr. 5
C:traditionell
R:Steirer
A:Hallstatt, Salzkammergut
B:Corpus Musicae Popularis Austriacae (COMPA), 5.Band: J.M.Schmalnauer " Tanz Musik", Verlag Boehlau, Wien 1996
S:manuscript des Johann Michael Schmalnauer um 1820
N:im der quelle in C
N:um1800
N:in der Handschrift keine 2 .Stimme
M:3/4
L:1/8
K:C
G2 |\
G3 A B2 | c3 d e2 | gf B2 B2 | cedBcA |\
G3 A B2 | cdef g2 | fa B2 B2 | c4 :|
K:G
d2 |\
d3 e f2 | g3 a b2 | dc' f2 f2 | gbafge |\
d3 e f2 | g3 a b2 | dc' f2 f2 | g4 :|
